!!!!SEGMENT: d-dl--mus-4327-l-500_radziwill-antoni-henryk--duettino-im-hohen-schilfe-grun-und-dicht.krn
!!!cenid: 18xx:4235
!!!COM: Radziwiłł, Antoni Henryk
!!!COM-rismID: pe32624
!!!CDT:
!!!CNT:
!!!OTL: Duettino/Im hohen Schilfe grün und dicht
!!!PDT:
!!!AGN:
!!!YEC: Copyright 2022 Narodowy Instytut Fryderyka Chopina (https://polishscores.org)
!!!YEM: License CC-BY-4.0 (https://creativecommons.org/licenses/by/4.0)
!!!SMS-siglum: D-Dl
!!!SMS-shelfmark: Mus.4327-L-500
!!!SMS-shelfwork: W
!!!SMS-variant:
!!!SMS-altvar:
!!!NIFC-rismSourceID: 1001100628
!!!NIFC-rismChildID: 1001100628
!!!NIFC-islandoraID: none
!!!URL-pdf-islandora:
!!!URL-scan: https://digital.slub-dresden.de/werkansicht?id=5363&tx_dlf%5Bid%5D=429781&tx_dlf%5Bpage%5D=3
!!!IIIF:
!!!ONB-nifc: UWAGA: proszę uwzględnić tylko tekst słowny znajdujący się bezpośrednio pod nutami
!!!AIN: 2 piano 2 vox
!!!key: C
**kern	**kern	**kern	**kern	**text
*part4	*part3	*part2	*part1	*
*staff4	*staff3	*staff2	*staff1	*
*I"Fortepiano	*I"Fortepiano	*I"Zweyte Stime.	*I"Erste Stime.	*
*I'pf	*I'pf	*I'[V 2]	*I'[V 1]	*
*ICklav	*ICklav	*ICvox	*ICvox	*
*Ipiano	*Ipiano	*Ivox	*Ivox	*
*clefF4	*clefG2	*clefG2	*clefG2	*
*k[]	*k[]	*k[]	*k[]	*
*C:	*C:	*C:	*C:	*
*M6/8	*M6/8	*M6/8	*M6/8	*
!	!	!	!LO:TX:a:B:t=Allegretto.	!
8r	8g/	8g/	8g/	Im
=1	=1	=1	=1	=1
4C/ 4G	(16cc/LL	4e/	4cc\	ho-
.	16g/	.	.	.
.	16e/	.	.	.
.	16g/)	.	.	.
8C/ 8G	(16e/	8e/	8cc\	-hen
.	16g/JJ)	.	.	.
4C/ 4G	(16e/LL	4e/	4cc\	Schif-
.	16g/	.	.	.
.	16cc/	.	.	.
.	16g/)	.	.	.
8r	(16e/	8e/	8cc#X\	-te
.	16g/JJ)	.	.	.
=2	=2	=2	=2	=2
4GG/ 4D 4G	16f/LL	4g/	4dd\	grün
.	(16g/	.	.	.
.	16b/	.	.	.
.	16g/)	.	.	.
8GG/ 8D 8G	(16f/	8b/	8b/	und
.	16g/JJ)	.	.	.
4GG/ 4D 4G	(16f/LL	4dd\	4g/	dicht
.	16g/	.	.	.
.	16b/	.	.	.
.	16g/)	.	.	.
8r	(16f/	8b\	8g/	stand
.	16g/JJ)	.	.	.
=3	=3	=3	=3	=3
4C/ 4G	(16e/LL	4cc\	4ee\	ein-
.	16g/	.	.	.
.	16ee/	.	.	.
.	16g/)	.	.	.
8C/ 8c	(16e/	8cc\	8ee\	-sam
.	16g/JJ)	.	.	.
4A\ 4c	(16f/LL	4a/	4ff\	ein
.	16cc/	.	.	.
.	16ff/	.	.	.
.	16cc/)	.	.	.
8A\ 8c	(16f/	8a/	8ff\	Ver-
.	16ff/JJ)	.	.	.
=4	=4	=4	=4	=4
4C\ 4B	16f/LL	4b/	4dd\	-gisſ
.	16b/	.	.	.
.	16dd/	.	.	.
.	16b/	.	.	.
8B\ 8d	16f/	8b/	8dd\	mein
.	16b/JJ	.	.	.
!!LO:LB:g=original	!	!	!	!
4E\ 4B	16g#X/LL	4g#X/	4ee\	nicht
.	16b/	.	.	.
.	16ee/	.	.	.
.	16b/	.	.	.
8E\ 8B	16g#/	8g#/	8dd\	in
.	16b/JJ	.	.	.
=5	=5	=5	=5	=5
4AA/ 4A	16e/LL	4a/	4ccn\	sich
.	(16a/	.	.	.
.	16cc/	.	.	.
.	16a/)	.	.	.
8A\ 8c	(16gn/	8a/	8cc\	be-
.	16f#X/JJ)	.	.	.
4G\ 4B 4d	(16fn/LL	4b/	4dd\	-schei-
.	16b/	.	.	.
.	16dd/)	.	.	.
.	16b/	.	.	.
8G\ 8B 8d	(16g/	8b/	8dd\	-den
.	16f/JJ)	.	.	.
=6	=6	=6	=6	=6
4C\ 4G 4c	(<16e/LL	(4.cc\	[4.ee\	schön
.	16g/	.	.	.
.	16ee/	.	.	.
.	16g/)	.	.	.
8C\ 8G 8c	(16e/	.	.	.
.	16g/JJ)	.	.	.
4C\ 4G 4c	(16e/LL	4gn/)	4ee\]	.
.	16g/	.	.	.
.	16cc/	.	.	.
.	16g/)	.	.	.
8C\ 8G 8c	(16e/	8e/	8cc\	in
.	16g/JJ)	.	.	.
=7	=7	=7	=7	=7
*	*^	*	*	*
4GG/ 4G	8dd/L	16f\LL	4f/	4dd\	sich
.	.	16g\	.	.	.
.	8dd/	16f\	.	.	.
.	.	16g\	.	.	.
8GG/ 8G	8cc/J	16e\	8e/	8cc\	be-
.	.	16g\JJ	.	.	.
4GG/ 4G	8dd/L	16f\LL	4f/	4dd\	-schei-
.	.	16g\	.	.	.
.	8dd/	16f\	.	.	.
.	.	16g\	.	.	.
8GG/ 8G	8ee/J	16e\	8g/	8ee\	-den
.	.	16g\JJ	.	.	.
=8	=8	=8	=8	=8	=8
8C\L 8G	8cc/L	16e\LL	4e/	4cc\	schön
.	.	16g\	.	.	.
8AA\ 8C 8G	8cc/	16e\	.	.	.
.	.	16g\	.	.	.
8C\J 8G	8ee/J	16e\	8r	8r	.
.	.	16g\JJ	.	.	.
4C\ 4G	4cc/	4e\	4r	4r	.
8r	8ryy	8r	8gg\	8b/	Ihm
*	*v	*v	*	*	*
!!LO:LB:g=original	!	!	!	!
=9	=9	=9	=9	=9
4GG/ 4D 4G	(16b\LL	4gg\	4b/	ge-
.	16dd\	.	.	.
.	16gg\	.	.	.
.	16dd\)	.	.	.
8G\ 8B	(16b\	8gg\	8b/	-gen
.	16dd\JJ)	.	.	.
4G\ 4B	16b\LL	4gg\	4b/	ü-
.	(16dd\	.	.	.
.	16gg\	.	.	.
.	16dd\)	.	.	.
8G\ 8B	(16b\	8gg\	8b/	-ber-
.	16dd\JJ)	.	.	.
=10	=10	=10	=10	=10
*^	*	*	*	*
4A/ 4c	4G\	(16cc\LL	4gg\	4cc\	-stand
.	.	16dd\	.	.	.
.	.	16ff#X\	.	.	.
.	.	16dd\)	.	.	.
8A/ 8c	8G\	(16cc\	8ff#X\	8cc\	im
.	.	16dd\JJ)	.	.	.
4A/ 4c	4G\	(16cc\LL	4ff#\	(8ee\L	Thal
.	.	16dd\	.	.	.
.	.	16ff#X\	.	8dd\J)	.
.	.	16dd\)	.	.	.
8A/ 8c	8G\	(16cc\	8ff#\	8cc\	ein
.	.	16dd\JJ)	.	.	.
*v	*v	*	*	*	*
=11	=11	=11	=11	=11
4G\ 4B 4d	(16b\LL	4ffn\	4b\	Rö-
.	16dd\	.	.	.
.	16ffn\	.	.	.
.	16dd\)	.	.	.
8G\ 8d	(16ff\	8ff\	8dd\	-schen
.	16b\JJ)	.	.	.
8G\L 8d	(16aa\LL	(8aa\L	(8g/L	wie
.	16b\)	.	.	.
8G\ 8d	(16gg\	8gg\J)	8a/J)	.
.	16b\)	.	.	.
8G\J 8d	(16ff\	8ff\	8b/	Au-
.	16b\JJ)	.	.	.
=12	=12	=12	=12	=12
*^	*	*	*	*
16C/LL	4C\	(<16ee/LL	4ee\	(8cc\L	-re-
(<16G/	.	16cc/	.	.	.
16c/	.	16g/	.	8dd\J)	.
16G/)	.	16cc/)	.	.	.
(<16E/	8C\	(<16ee/	8ee\	8ee'\	-ras
16G/JJ)	.	16cc/JJ)	.	.	.
16C/LL	4C\	(<16ff/LL	(16dd/LL	(8ff\L	Strahl
(<16A/	.	16cc/	16cc/J	.	.
16c/	.	16a/	8b/)	8gg\J)	.
16A/)	.	16cc/)	.	.	.
(<16F/	8C\	(<16aa/	8a/J	8aa'\	so
16A/JJ)	.	16cc/JJ)	.	.	.
=13	=13	=13	=13	=13	=13
4C/ 4E 4G	4.ryy	16gg/LL	4g/	4gg\	rei-
.	.	16ee/	.	.	.
.	.	16cc/	.	.	.
.	.	16a/	.	.	.
8C/ 8E 8G	.	16cc/	8g/	8gg\	-zend
.	.	16ee/JJ	.	.	.
8B/L	8G\L	16gg/LL	(8g/L	(8gg\L	an
.	.	16g/	.	.	.
8c/	8G\	16ff#X/	8a/J)	8ff#X\J)	.
.	.	16a/	.	.	.
8d/J	8G\J	16ffn/	8b/	8ffn\	zu
.	.	16b/JJ	.	.	.
*v	*v	*	*	*	*
!!LO:LB:g=original	!	!	!	!
=14	=14	=14	=14	=14
4c\ 4e	(16ee\LL	[4.cc\	[4.ee\	sehn,
.	16cc\	.	.	.
.	16g\	.	.	.
.	16cc\)	.	.	.
8c\ 8e	(16ee\	.	.	.
.	16cc\JJ)	.	.	.
4C/ 4E 4G	(16gg\LL	4cc\]	4ee\]	.
.	16ee\)	.	.	.
.	(16ccc\	.	.	.
.	16gg\)	.	.	.
8C/ 8E 8G	(16ee\	8cc\	8ee\	so
.	16cc\JJ)	.	.	.
=15	=15	=15	=15	=15
*	*^	*	*	*
4GG/ 4G	4ddd/	16ff\LL	4dd\	4ff\	rei-
.	.	(>16gg\	.	.	.
.	.	16ff\)	.	.	.
.	.	16gg\	.	.	.
8GG/ 8G	8ccc#X/	16ee\	8cc#X\	8ee\	-zend
.	.	16gg\JJ	.	.	.
4GG/ 4G	4ddd/	16ff\LL	4dd\	4ff\	an
.	.	(>16gg\	.	.	.
.	.	16ff\)	.	.	.
.	.	16gg\	.	.	.
8GG/ 8G	8eee/	16ee\	8b\	8gg\	zu
.	.	16gg\JJ	.	.	.
=16	=16	=16	=16	=16	=16
4C/ 4E 4G	4cccn/	16ee\LL	(4.ccn\	[4.ee\	sehn.
.	.	(>16gg\	.	.	.
.	.	16ee\)	.	.	.
.	.	16gg\	.	.	.
8C/ 8E 8G	8ccc/	16ee\	.	.	.
.	.	16gg\JJ	.	.	.
8C/L 8E 8G	8eee/L	16ee\LL	4g/)	4ee\]	.
.	.	16gg\	.	.	.
8C/ 8E 8G	8ccc/	16ee\	.	.	.
.	.	16gg\	.	.	.
8C/J 8E 8G	8ccc/J	16ee\	8e/	8cc\	so
.	.	16gg\JJ	.	.	.
=17	=17	=17	=17	=17	=17
4GG/ 4G	4ddd/	16ff\LL	4f/	4dd\	rej-
.	.	16gg\	.	.	.
.	.	16ff\	.	.	.
.	.	16gg\	.	.	.
8GG/ 8G	8ccc/	16ee\	8e/	8cc\	-zend
.	.	16gg\JJ	.	.	.
4GG/ 4G	4ddd/	16ff\LL	4f/	4dd\	an
.	.	16gg\	.	.	.
.	.	16ff\	.	.	.
.	.	16gg\	.	.	.
8GG/ 8G	8eee/	16ee\	8g/	8ee\	zu
.	.	16gg\JJ	.	.	.
=18	=18	=18	=18	=18	=18
8C/L 8E 8G	8ccc/L	16ee\LL	4.e/	4.cc\	sehn
.	.	16gg\	.	.	.
8C/ 8E 8G	8ccc/	16ee\	.	.	.
.	.	16gg\	.	.	.
8C/J 8E 8G	8eee/J	16ee\	.	.	.
.	.	16gg\JJ	.	.	.
!	!	!	!LO:N:vis=4	!LO:N:vis=4	!
4C/ 4E 4G	4ccc/	4ee\	4.r	4.r	.
8ryy	8ryy	8ryy	.	.	.
*	*v	*v	*	*	*
=||	=||	=||	=||	=||
*-	*-	*-	*-	*-
!!!system-decoration: s1,s2{(s3,s4)}
!!!RDF**kern: > = above
!!!RDF**kern: < = below
!!!ENC: Andrzej Gręziak
!!!END: 2022-10-18
!!!ENC: Jan Barakat
!!!END: 2022-10-22
